;FLAVOR:Marlin
;TIME:3390
;Filament used: 1.59012m
;Layer height: 0.2









;POSTPROCESSED
;ChangeAtZ instances: 1
;Generated with Cura_SteamEngine 3.3.1
M190 S60
M104 S200
M109 S200
M82 ;absolute extrusion mode
G28 ;Home
G1 Z15.0 F6000 ;Move the platform down 15mm
;Prime the extruder
G92 E0
G1 F200 E3
G92 E0
G92 E0
G1 F1500 E-6.5
;LAYER_COUNT:450









;LAYER:0
M107
G0 F3600 X90.222 Y118.834 Z0.3
;TYPE:SKIRT
G1 F1500 E0
G1 F1800 X90.87 Y118.383 E0.01485
G1 X91.561 Y117.999 E0.02972
G1 X92.286 Y117.687 E0.04457
G1 X93.039 Y117.45 E0.05942
G1 X93.813 Y117.291 E0.07428
G1 X94.598 Y117.21 E0.08913
G1 X95 Y117.2 E0.09669
G1 X125 Y117.2 E0.66101
G1 X125.789 Y117.24 E0.67587
G1 X126.569 Y117.359 E0.69071
G1 X127.334 Y117.557 E0.70557
G1 X128.074 Y117.831 E0.72042
G1 X128.783 Y118.179 E0.73527
G1 X129.454 Y118.597 E0.75014
G1 X130.078 Y119.08 E0.76499
G1 X130.651 Y119.623 E0.77984
G1 X131.166 Y120.222 E0.7947
G1 X131.617 Y120.87 E0.80955
G1 X132.001 Y121.561 E0.82442
G1 X132.313 Y122.286 E0.83926
G1 X132.55 Y123.039 E0.85411
G1 X132.709 Y123.813 E0.86898
G1 X132.79 Y124.598 E0.88382
G1 X132.8 Y125 E0.89139
G1 X132.8 Y155 E1.4557
G1 X132.76 Y155.789 E1.47056
G1 X132.641 Y156.569 E1.4854
G1 X132.443 Y157.334 E1.50027
G1 X132.169 Y158.074 E1.51511
G1 X131.821 Y158.783 E1.52997
G1 X131.403 Y159.454 E1.54484
G1 X130.92 Y160.078 E1.55968
G1 X130.377 Y160.651 E1.57453
G1 X129.778 Y161.166 E1.58939
G1 X129.13 Y161.617 E1.60424
G1 X128.439 Y162.001 E1.61911
G1 X127.714 Y162.313 E1.63396
G1 X126.961 Y162.55 E1.64881
G1 X126.187 Y162.709 E1.66367
G1 X125.402 Y162.79 E1.67852
G1 X125 Y162.8 E1.68608
G1 X95 Y162.8 E2.2504
G1 X94.211 Y162.76 E2.26526
G1 X93.431 Y162.641 E2.2801
G1 X92.666 Y162.443 E2.29496
G1 X91.926 Y162.169 E2.30981
G1 X91.217 Y161.821 E2.32466
G1 X90.546 Y161.403 E2.33954
G1 X89.922 Y160.92 E2.35438
G1 X89.349 Y160.377 E2.36923
G1 X88.834 Y159.778 E2.38409
G1 X88.383 Y159.13 E2.39894
G1 X87.999 Y158.439 E2.41381
G1 X87.687 Y157.714 E2.42866
G1 X87.45 Y156.961 E2.44351
G1 X87.291 Y156.187 E2.45837
G1 X87.21 Y155.402 E2.47321
G1 X87.2 Y155 E2.48078
G1 X87.2 Y125 E3.04509
G1 X87.24 Y124.211 E3.05995
G1 X87.359 Y123.431 E3.0748
G1 X87.557 Y122.666 E3.08966
G1 X87.831 Y121.926 E3.1045
G1 X88.179 Y121.217 E3.11936
G1 X88.597 Y120.546 E3.13423
G1 X89.08 Y119.922 E3.14907
G1 X89.623 Y119.349 E3.16392
G1 X90.222 Y118.834 E3.17878
G0 F3600 X90.611 Y119.042
G1 F1800 X91.253 Y118.619 E3.19325
G1 X91.936 Y118.264 E3.20772
G1 X92.651 Y117.983 E3.22218
G1 X93.393 Y117.777 E3.23666
G1 X94.151 Y117.649 E3.25112
G1 X95 Y117.6 E3.26712
G1 X125 Y117.6 E3.83143
G1 X125.768 Y117.64 E3.8459
G1 X126.528 Y117.759 E3.86037
G1 X127.271 Y117.957 E3.87484
G1 X127.99 Y118.231 E3.88931
G1 X128.676 Y118.578 E3.90377
G1 X129.323 Y118.994 E3.91824
G1 X129.923 Y119.475 E3.9327
G1 X130.47 Y120.016 E3.94718
G1 X130.958 Y120.611 E3.96165
G1 X131.381 Y121.253 E3.97611
G1 X131.736 Y121.936 E3.99059
G1 X132.017 Y122.651 E4.00504
G1 X132.223 Y123.393 E4.01953
G1 X132.351 Y124.151 E4.03399
G1 X132.4 Y125 E4.04999
G1 X132.4 Y155 E4.6143
G1 X132.36 Y155.768 E4.62877
G1 X132.241 Y156.528 E4.64324
G1 X132.043 Y157.271 E4.6577
G1 X131.769 Y157.99 E4.67218
G1 X131.422 Y158.676 E4.68664
G1 X131.006 Y159.323 E4.70111
G1 X130.525 Y159.923 E4.71557
G1 X129.984 Y160.47 E4.73004
G1 X129.389 Y160.958 E4.74452
G1 X128.747 Y161.381 E4.75898
G1 X128.064 Y161.736 E4.77346
G1 X127.349 Y162.017 E4.78791
G1 X126.607 Y162.223 E4.8024
G1 X125.849 Y162.351 E4.81686
G1 X125 Y162.4 E4.83285
G1 X95 Y162.4 E5.39717
G1 X94.232 Y162.36 E5.41164
G1 X93.472 Y162.241 E5.42611
G1 X92.729 Y162.043 E5.44057
G1 X92.01 Y161.769 E5.45504
G1 X91.324 Y161.422 E5.46951
G1 X90.677 Y161.006 E5.48397
G1 X90.077 Y160.525 E5.49844
G1 X89.53 Y159.984 E5.51291
G1 X89.042 Y159.389 E5.52739
G1 X88.619 Y158.747 E5.54185
G1 X88.264 Y158.064 E5.55633
G1 X87.983 Y157.349 E5.57078
G1 X87.777 Y156.607 E5.58526
G1 X87.649 Y155.849 E5.59972
G1 X87.6 Y155 E5.61572
G1 X87.6 Y125 E6.18004
G1 X87.64 Y124.232 E6.1945
G1 X87.759 Y123.472 E6.20897
G1 X87.957 Y122.729 E6.22344
G1 X88.231 Y122.01 E6.23791
G1 X88.578 Y121.324 E6.25237
G1 X88.994 Y120.677 E6.26684
G1 X89.475 Y120.077 E6.28131
G1 X90.016 Y119.53 E6.29578
G1 X90.611 Y119.042 E6.31025
G0 F3600 X90.998 Y119.257
G1 F1800 X91.634 Y118.862 E6.32434
G1 X92.308 Y118.538 E6.3384
G1 X93.013 Y118.288 E6.35247
G1 X93.741 Y118.114 E6.36655
G1 X94.483 Y118.019 E6.38063
G1 X95 Y118 E6.39036
G1 X125 Y118 E6.95467
G1 X125.747 Y118.04 E6.96875
G1 X126.485 Y118.159 E6.98281
G1 X127.207 Y118.357 E6.99689
G1 X127.903 Y118.63 E7.01095
G1 X128.566 Y118.977 E7.02503
G1 X129.189 Y119.392 E7.03911
G1 X129.763 Y119.871 E7.05317
G1 X130.284 Y120.408 E7.06725
G1 X130.743 Y120.998 E7.08131
G1 X131.138 Y121.634 E7.09539
G1 X131.462 Y122.308 E7.10946
G1 X131.712 Y123.013 E7.12353
G1 X131.886 Y123.741 E7.13761
G1 X131.981 Y124.483 E7.15168
G1 X132 Y125 E7.16141
G1 X132 Y155 E7.72573
G1 X131.96 Y155.747 E7.7398
G1 X131.841 Y156.485 E7.75386
G1 X131.643 Y157.207 E7.76794
G1 X131.37 Y157.903 E7.78201
G1 X131.023 Y158.566 E7.79608
G1 X130.608 Y159.189 E7.81017
G1 X130.129 Y159.763 E7.82423
G1 X129.592 Y160.284 E7.8383
G1 X129.002 Y160.743 E7.85236
G1 X128.366 Y161.138 E7.86645
G1 X127.692 Y161.462 E7.88051
G1 X126.987 Y161.712 E7.89458
G1 X126.259 Y161.886 E7.90866
G1 X125.517 Y161.981 E7.92274
G1 X125 Y162 E7.93247
G1 X95 Y162 E8.49678
G1 X94.253 Y161.96 E8.51086
G1 X93.515 Y161.841 E8.52492
G1 X92.793 Y161.643 E8.539
G1 X92.097 Y161.37 E8.55306
G1 X91.434 Y161.023 E8.56714
G1 X90.811 Y160.608 E8.58122
G1 X90.237 Y160.129 E8.59528
G1 X89.716 Y159.592 E8.60936
G1 X89.257 Y159.002 E8.62342
G1 X88.862 Y158.366 E8.6375
G1 X88.538 Y157.692 E8.65157
G1 X88.288 Y156.987 E8.66564
G1 X88.114 Y156.259 E8.67972
G1 X88.019 Y155.517 E8.69379
G1 X88 Y155 E8.70352
G1 X88 Y125 E9.26784
G1 X88.04 Y124.253 E9.28191
G1 X88.159 Y123.515 E9.29597
G1 X88.357 Y122.793 E9.31005
G1 X88.63 Y122.097 E9.32412
G1 X88.977 Y121.434 E9.33819
G1 X89.392 Y120.811 E9.35227
G1 X89.871 Y120.237 E9.36634
G1 X90.408 Y119.716 E9.38041
G1 X90.998 Y119.257 E9.39447
G0 F3600 X90.799 Y119.909
G1 F1800 X91.384 Y119.479 E9.40813
G1 X92.013 Y119.115 E9.4218
G1 X92.678 Y118.822 E9.43547
G1 X93.371 Y118.604 E9.44914
G1 X94.083 Y118.464 E9.46278
G1 X95 Y118.4 E9.48008
G1 X125 Y118.4 E10.04439
G1 X125.725 Y118.44 E10.05805
G1 X126.442 Y118.559 E10.07172
G1 X127.141 Y118.757 E10.08539
G1 X127.814 Y119.03 E10.09905
G1 X128.453 Y119.375 E10.11271
G1 X129.05 Y119.789 E10.12638
G1 X129.598 Y120.265 E10.14003
G1 X130.091 Y120.799 E10.1537
G1 X130.521 Y121.384 E10.16736
G1 X130.885 Y122.013 E10.18103
G1 X131.178 Y122.678 E10.1947
G1 X131.396 Y123.371 E10.20836
G1 X131.536 Y124.083 E10.22201
G1 X131.6 Y125 E10.2393
G1 X131.6 Y155 E10.80362
G1 X131.56 Y155.725 E10.81728
G1 X131.441 Y156.442 E10.83095
G1 X131.243 Y157.141 E10.84462
G1 X130.97 Y157.814 E10.85828
G1 X130.625 Y158.453 E10.87194
G1 X130.211 Y159.05 E10.8856
G1 X129.735 Y159.598 E10.89926
G1 X129.201 Y160.091 E10.91293
G1 X128.616 Y160.521 E10.92659
G1 X127.987 Y160.885 E10.94026
G1 X127.322 Y161.178 E10.95393
G1 X126.629 Y161.396 E10.96759
G1 X125.917 Y161.536 E10.98124
G1 X125 Y161.6 E10.99853
G1 X95 Y161.6 E11.56285
G1 X94.275 Y161.56 E11.57651
G1 X93.558 Y161.441 E11.59018
G1 X92.859 Y161.243 E11.60384
G1 X92.186 Y160.97 E11.61751
G1 X91.547 Y160.625 E11.63117
G1 X90.95 Y160.211 E11.64483
G1 X90.402 Y159.735 E11.65849
G1 X89.909 Y159.201 E11.67216
G1 X89.479 Y158.616 E11.68581
G1 X89.115 Y157.987 E11.69948
G1 X88.822 Y157.322 E11.71315
G1 X88.604 Y156.629 E11.72682
G1 X88.464 Y155.917 E11.74047
G1 X88.4 Y155 E11.75776
G1 X88.4 Y125 E12.32208
G1 X88.44 Y124.275 E12.33574
G1 X88.559 Y123.558 E12.34941
G1 X88.757 Y122.859 E12.36307
G1 X89.03 Y122.186 E12.37673
G1 X89.375 Y121.547 E12.39039
G1 X89.789 Y120.95 E12.40406
G1 X90.265 Y120.402 E12.41771
G1 X90.799 Y119.909 E12.43138
G0 F3600 X91.189 Y120.109
G1 F1800 X91.768 Y119.709 E12.44462
G1 X92.389 Y119.377 E12.45787
G1 X93.043 Y119.117 E12.47111
G1 X93.723 Y118.933 E12.48436
G1 X94.419 Y118.827 E12.4976
G1 X95 Y118.8 E12.50854
G1 X125 Y118.8 E13.07286
G1 X125.703 Y118.84 E13.0861
G1 X126.397 Y118.959 E13.09935
G1 X127.072 Y119.157 E13.11258
G1 X127.721 Y119.429 E13.12582
G1 X128.335 Y119.774 E13.13907
G1 X128.906 Y120.185 E13.1523
G1 X129.427 Y120.659 E13.16555
G1 X129.891 Y121.189 E13.1788
G1 X130.291 Y121.768 E13.19204
G1 X130.623 Y122.389 E13.20528
G1 X130.883 Y123.043 E13.21852
G1 X131.067 Y123.723 E13.23177
G1 X131.173 Y124.419 E13.24502
G1 X131.2 Y125 E13.25596
G1 X131.2 Y155 E13.82027
G1 X131.16 Y155.703 E13.83352
G1 X131.041 Y156.397 E13.84676
G1 X130.843 Y157.072 E13.86
G1 X130.571 Y157.721 E13.87323
G1 X130.226 Y158.335 E13.88648
G1 X129.815 Y158.906 E13.89971
G1 X129.341 Y159.427 E13.91296
G1 X128.811 Y159.891 E13.92621
G1 X128.232 Y160.291 E13.93945
G1 X127.611 Y160.623 E13.9527
G1 X126.957 Y160.883 E13.96594
G1 X126.277 Y161.067 E13.97919
G1 X125.581 Y161.173 E13.99243
G1 X125 Y161.2 E14.00337
G1 X95 Y161.2 E14.56769
G1 X94.297 Y161.16 E14.58093
G1 X93.603 Y161.041 E14.59418
G1 X92.928 Y160.843 E14.60741
G1 X92.279 Y160.571 E14.62065
G1 X91.665 Y160.226 E14.6339
G1 X91.094 Y159.815 E14.64713
G1 X90.573 Y159.341 E14.66038
G1 X90.109 Y158.811 E14.67363
G1 X89.709 Y158.232 E14.68687
G1 X89.377 Y157.611 E14.70011
G1 X89.117 Y156.957 E14.71335
G1 X88.933 Y156.277 E14.7266
G1 X88.827 Y155.581 E14.73985
G1 X88.8 Y155 E14.75079
G1 X88.8 Y125 E15.3151
G1 X88.84 Y124.297 E15.32835
G1 X88.959 Y123.603 E15.34159
G1 X89.157 Y122.928 E15.35483
G1 X89.429 Y122.279 E15.36806
G1 X89.774 Y121.665 E15.38131
G1 X90.185 Y121.094 E15.39454
G1 X90.659 Y120.573 E15.40779
G1 X91.189 Y120.109 E15.42104
G0 F3600 X91.578 Y120.317
G1 F1800 X92.15 Y119.948 E15.43385
G1 X92.762 Y119.649 E15.44666
G1 X93.404 Y119.424 E15.45946
G1 X94.069 Y119.275 E15.47228
G1 X95 Y119.2 E15.48985
G1 X125 Y119.2 E16.05416
G1 X125.68 Y119.24 E16.06698
G1 X126.35 Y119.359 E16.07978
G1 X127.002 Y119.556 E16.09259
G1 X127.626 Y119.828 E16.10539
G1 X128.214 Y120.172 E16.11821
G1 X128.758 Y120.582 E16.13102
G1 X129.249 Y121.053 E16.14382
G1 X129.683 Y121.578 E16.15663
G1 X130.052 Y122.15 E16.16944
G1 X130.351 Y122.762 E16.18225
G1 X130.576 Y123.404 E16.19505
G1 X130.725 Y124.069 E16.20786
G1 X130.8 Y125 E16.22543
G1 X130.8 Y155 E16.78975
G1 X130.76 Y155.68 E16.80256
G1 X130.641 Y156.35 E16.81536
G1 X130.444 Y157.002 E16.82818
G1 X130.172 Y157.626 E16.84098
G1 X129.828 Y158.214 E16.8538
G1 X129.418 Y158.758 E16.86661
G1 X128.947 Y159.249 E16.87941
G1 X128.422 Y159.683 E16.89222
G1 X127.85 Y160.052 E16.90502
G1 X127.238 Y160.351 E16.91784
G1 X126.596 Y160.576 E16.93063
G1 X125.931 Y160.725 E16.94345
G1 X125 Y160.8 E16.96102
G1 X95 Y160.8 E17.52534
G1 X94.32 Y160.76 E17.53815
G1 X93.65 Y160.641 E17.55095
G1 X92.998 Y160.444 E17.56376
G1 X92.374 Y160.172 E17.57657
G1 X91.786 Y159.828 E17.58938
G1 X91.242 Y159.418 E17.6022
G1 X90.751 Y158.947 E17.615
G1 X90.317 Y158.422 E17.62781
G1 X89.948 Y157.85 E17.64061
G1 X89.649 Y157.238 E17.65343
G1 X89.424 Y156.596 E17.66622
G1 X89.275 Y155.931 E17.67904
G1 X89.2 Y155 E17.69661
G1 X89.2 Y125 E18.26093
G1 X89.24 Y124.32 E18.27374
G1 X89.359 Y123.65 E18.28654
G1 X89.556 Y122.998 E18.29935
G1 X89.828 Y122.374 E18.31216
G1 X90.172 Y121.786 E18.32497
G1 X90.582 Y121.242 E18.33779
G1 X91.053 Y120.751 E18.35058
G1 X91.578 Y120.317 E18.3634
G0 F3600 X91.445 Y120.935
G1 F1800 X91.965 Y120.534 E18.37575
G1 X92.529 Y120.198 E18.3881
G1 X93.131 Y119.934 E18.40046
G1 X93.76 Y119.744 E18.41282
G1 X94.407 Y119.633 E18.42517
G1 X95 Y119.6 E18.43634
G1 X125 Y119.6 E19.00066
G1 X125.656 Y119.64 E19.01302
G1 X126.302 Y119.759 E19.02538
G1 X126.929 Y119.956 E19.03774
G1 X127.527 Y120.228 E19.0501
G1 X128.088 Y120.57 E19.06246
G1 X128.603 Y120.978 E19.07482
G1 X129.065 Y121.445 E19.08717
G1 X129.466 Y121.965 E19.09953
G1 X129.802 Y122.529 E19.11188
G1 X130.066 Y123.131 E19.12424
G1 X130.256 Y123.76 E19.1366
G1 X130.367 Y124.407 E19.14895
G1 X130.4 Y125 E19.16012
G1 X130.4 Y155 E19.72444
G1 X130.36 Y155.656 E19.7368
G1 X130.241 Y156.302 E19.74916
G1 X130.044 Y156.929 E19.76152
G1 X129.772 Y157.527 E19.77388
G1 X129.43 Y158.088 E19.78624
G1 X129.022 Y158.603 E19.79859
G1 X128.555 Y159.065 E19.81095
G1 X128.035 Y159.466 E19.8233
G1 X127.471 Y159.802 E19.83565
G1 X126.869 Y160.066 E19.84802
G1 X126.24 Y160.256 E19.86038
G1 X125.593 Y160.367 E19.87273
G1 X125 Y160.4 E19.8839
G1 X95 Y160.4 E20.44821
G1 X94.344 Y160.36 E20.46058
G1 X93.698 Y160.241 E20.47293
G1 X93.071 Y160.044 E20.4853
G1 X92.473 Y159.772 E20.49765
G1 X91.912 Y159.43 E20.51001
G1 X91.397 Y159.022 E20.52237
G1 X90.935 Y158.555 E20.53473
G1 X90.534 Y158.035 E20.54708
G1 X90.198 Y157.471 E20.55943
G1 X89.934 Y156.869 E20.57179
G1 X89.744 Y156.24 E20.58415
G1 X89.633 Y155.593 E20.5965
G1 X89.6 Y155 E20.60767
G1 X89.6 Y125 E21.17199
G1 X89.64 Y124.344 E21.18435
G1 X89.759 Y123.698 E21.19671
G1 X89.956 Y123.071 E21.20907
G1 X90.228 Y122.473 E21.22143
G1 X90.57 Y121.912 E21.23379
G1 X90.978 Y121.397 E21.24615
G1 X91.445 Y120.935 E21.25851
G0 F3600 X91.836 Y121.129
G1 F1800 X92.35 Y120.76 E21.27041
G1 X92.906 Y120.46 E21.28229
G1 X93.495 Y120.232 E21.29417
G1 X94.109 Y120.08 E21.30607
G1 X95 Y120 E21.3229
G1 X125 Y120 E21.88721
G1 X125.631 Y120.04 E21.89911
G1 X126.252 Y120.159 E21.911
G1 X126.852 Y120.356 E21.92288
G1 X127.424 Y120.627 E21.93479
G1 X127.956 Y120.967 E21.94666
G1 X128.441 Y121.373 E21.95856
G1 X128.871 Y121.836 E21.97045
G1 X129.24 Y122.35 E21.98235
G1 X129.54 Y122.906 E21.99423
G1 X129.768 Y123.495 E22.00611
G1 X129.92 Y124.109 E22.01801
G1 X130 Y125 E22.03484
G1 X130 Y155 E22.59916
G1 X129.96 Y155.631 E22.61105
G1 X129.841 Y156.252 E22.62294
G1 X129.644 Y156.852 E22.63482
G1 X129.373 Y157.424 E22.64673
G1 X129.033 Y157.956 E22.65861
G1 X128.627 Y158.441 E22.6705
G1 X128.164 Y158.871 E22.68239
G1 X127.65 Y159.24 E22.69429
G1 X127.094 Y159.54 E22.70618
G1 X126.505 Y159.768 E22.71806
G1 X125.891 Y159.92 E22.72995
G1 X125 Y160 E22.74678
G1 X95 Y160 E23.3111
G1 X94.369 Y159.96 E23.32299
G1 X93.748 Y159.841 E23.33489
G1 X93.148 Y159.644 E23.34676
G1 X92.576 Y159.373 E23.35867
G1 X92.044 Y159.033 E23.37055
G1 X91.559 Y158.627 E23.38244
G1 X91.129 Y158.164 E23.39433
G1 X90.76 Y157.65 E23.40623
G1 X90.46 Y157.094 E23.41812
G1 X90.232 Y156.505 E23.43
G1 X90.08 Y155.891 E23.4419
G1 X90 Y155 E23.45872
G1 X90 Y125 E24.02304
G1 X90.04 Y124.369 E24.03493
G1 X90.159 Y123.748 E24.04683
G1 X90.356 Y123.148 E24.05871
G1 X90.627 Y122.576 E24.07061
G1 X90.967 Y122.044 E24.08249
G1 X91.373 Y121.559 E24.09439
G1 X91.836 Y121.129 E24.10627
G0 F3600 X92.225 Y121.331
G1 F1800 X92.732 Y120.998 E24.11768
G1 X93.278 Y120.734 E24.12909
G1 X93.854 Y120.545 E24.14049
G1 X94.45 Y120.433 E24.1519
G1 X95 Y120.4 E24.16227
G1 X125 Y120.4 E24.72658
G1 X125.605 Y120.44 E24.73799
G1 X126.199 Y120.559 E24.74938
G1 X126.773 Y120.755 E24.76079
G1 X127.316 Y121.026 E24.77221
G1 X127.819 Y121.365 E24.78362
G1 X128.272 Y121.767 E24.79501
G1 X128.669 Y122.225 E24.80641
G1 X129.002 Y122.732 E24.81782
G1 X129.266 Y123.278 E24.82923
G1 X129.455 Y123.854 E24.84063
G1 X129.567 Y124.45 E24.85204
G1 X129.6 Y125 E24.86241
G1 X129.6 Y155 E25.42672
G1 X129.56 Y155.605 E25.43813
G1 X129.441 Y156.199 E25.44952
G1 X129.245 Y156.773 E25.46093
G1 X128.974 Y157.316 E25.47235
G1 X128.635 Y157.819 E25.48376
G1 X128.233 Y158.272 E25.49515
G1 X127.775 Y158.669 E25.50655
G1 X127.268 Y159.002 E25.51796
G1 X126.722 Y159.266 E25.52937
G1 X126.146 Y159.455 E25.54077
G1 X125.55 Y159.567 E25.55218
G1 X125 Y159.6 E25.56254
G1 X95 Y159.6 E26.12686
G1 X94.395 Y159.56 E26.13827
G1 X93.801 Y159.441 E26.14966
G1 X93.227 Y159.245 E26.16107
G1 X92.684 Y158.974 E26.17249
G1 X92.181 Y158.635 E26.1839
G1 X91.728 Y158.233 E26.19529
G1 X91.331 Y157.775 E26.20669
G1 X90.998 Y157.268 E26.2181
G1 X90.734 Y156.722 E26.22951
G1 X90.545 Y156.146 E26.24091
G1 X90.433 Y155.55 E26.25232
G1 X90.4 Y155 E26.26268
G1 X90.4 Y125 E26.827
G1 X90.44 Y124.395 E26.83841
G1 X90.559 Y123.801 E26.8498
G1 X90.755 Y123.227 E26.86121
G1 X91.026 Y122.684 E26.87263
